pp/sun.svg

<svg viewBox="0 0 20 20" fill="none" xmlns="http://www.w3.org/2000/svg" height="1em" width="1em">
  <path fill-rule="evenodd" clip-rule="evenodd" d="M10 14C12.2091 14 14 12.2091 14 10C14 7.79086 12.2091 6 10 6C7.79086 6 6 7.79086 6 10C6 12.2091 7.79086 14 10 14ZM10 8C11.1046 8 12 8.89543 12 10C12 11.1046 11.1046 12 10 12C8.89543 12 8 11.1046 8 10C8 8.89543 8.89543 8 10 8Z" fill="currentColor"/>
  <path d="M0.5 10C0.5 9.44772 0.947715 9 1.5 9H3.5C4.05228 9 4.5 9.44772 4.5 10C4.5 10.5523 4.05228 11 3.5 11H1.5C0.947715 11 0.5 10.5523 0.5 10Z" fill="currentColor"/>
  <path d="M15.5 10C15.5 9.44772 15.9477 9 16.5 9H18.5C19.0523 9 19.5 9.44772 19.5 10C19.5 10.5523 19.0523 11 18.5 11H16.5C15.9477 11 15.5 10.5523 15.5 10Z" fill="currentColor"/>
  <path d="M14 14C14.3905 13.6095 15.0237 13.6095 15.4142 14L16.8284 15.4142C17.219 15.8047 17.219 16.4379 16.8284 16.8284C16.4379 17.2189 15.8048 17.2189 15.4142 16.8284L14 15.4142C13.6095 15.0237 13.6095 14.3905 14 14Z" fill="currentColor"/>
  <path d="M2.99999 2.99999C3.39051 2.60946 4.02367 2.60946 4.4142 2.99999L5.82841 4.4142C6.21894 4.80472 6.21894 5.43789 5.82841 5.82841C5.43789 6.21894 4.80472 6.21894 4.4142 5.82841L2.99999 4.4142C2.60946 4.02367 2.60946 3.39051 2.99999 2.99999Z" fill="currentColor"/>
  <path d="M10 15.5C10.5523 15.5 11 15.9477 11 16.5V18.5C11 19.0523 10.5523 19.5 10 19.5C9.44772 19.5 9 19.0523 9 18.5V16.5C9 15.9477 9.44772 15.5 10 15.5Z" fill="currentColor"/>
  <path d="M10 0.5C10.5523 0.5 11 0.947715 11 1.5V3.5C11 4.05228 10.5523 4.5 10 4.5C9.44772 4.5 9 4.05228 9 3.5V1.5C9 0.947715 9.44772 0.5 10 0.5Z" fill="currentColor"/>
  <path d="M16.8284 2.99999C17.2189 3.39051 17.2189 4.02367 16.8284 4.4142L15.4142 5.82841C15.0237 6.21894 14.3905 6.21894 14 5.82841C13.6095 5.43789 13.6095 4.80472 14 4.4142L15.4142 2.99999C15.8047 2.60946 16.4379 2.60946 16.8284 2.99999Z" fill="currentColor"/>
  <path d="M5.82841 15.4142L4.4142 16.8284C4.02368 17.219 3.39051 17.219 2.99999 16.8284C2.60946 16.4379 2.60946 15.8048 2.99999 15.4142L4.4142 14C4.80472 13.6095 5.43789 13.6095 5.82841 14C6.21894 14.3905 6.21894 15.0237 5.82841 15.4142Z" fill="currentColor"/>
</svg>

<svg viewBox="0 0 20 20" fill="none" xmlns="http://www.w3.org/2000/svg" height="1em" width="1em">
  <path fill-rule="evenodd" clip-rule="evenodd" d="M10 14a4 4 0 1 0 0-8 4 4 0 0 0 0 8Zm0-6a2 2 0 1 1 0 4 2 2 0 0 1 0-4Z" fill="currentColor"/>
  <path d="M.5 10a1 1 0 0 1 1-1h2a1 1 0 0 1 0 2h-2a1 1 0 0 1-1-1Zm15 0a1 1 0 0 1 1-1h2a1 1 0 1 1 0 2h-2a1 1 0 0 1-1-1ZM14 14a1 1 0 0 1 1.414 0l1.414 1.414a1 1 0 1 1-1.414 1.414L14 15.414A1 1 0 0 1 14 14ZM3 3a1 1 0 0 1 1.414 0l1.414 1.414a1 1 0 1 1-1.414 1.414L3 4.414A1 1 0 0 1 3 3Zm7 12.5a1 1 0 0 1 1 1v2a1 1 0 1 1-2 0v-2a1 1 0 0 1 1-1Zm0-15a1 1 0 0 1 1 1v2a1 1 0 1 1-2 0v-2a1 1 0 0 1 1-1ZM16.828 3a1 1 0 0 1 0 1.414l-1.414 1.414A1 1 0 1 1 14 4.414L15.414 3a1 1 0 0 1 1.414 0Zm-11 12.414-1.414 1.414A1 1 0 1 1 3 15.414L4.414 14a1 1 0 0 1 1.414 1.414Z" fill="currentColor"/>
</svg>
